X:1
T:Gloria
T:Josef Gabriel Rheinberger
T:Recomposed for liturgical use by Jeffrey Quick, 2016
T:Duration: 3:00
T:Gloria
T:From Missa Puorum Op. 62
T:©2016
T:©2016
T:©2016
T:©2016
T:©2016
C:Josef Gabriel Rheinberger
Z:©2016
%%score 1 { ( 2 4 6 ) | ( 3 5 ) }
L:1/8
Q:1/4=136
M:none
K:Ab
V:1 treble nm="Voice" snm="V."
V:2 treble nm="Organ" snm="Org."
V:4 treble 
V:6 treble 
V:3 bass 
V:5 bass 
V:1
"^Priest:" (!stemless!E!stemless!F!stemless!A)!stemless!A !stemless!A!stemless!G!stemless!A!stemless!B!stemless!G(!stemless!B!stemless!A!stemless!G) !stemless!G2 || %1
w: Glo- * * ri- a in ex- cel- sis De- * * o|
[M:2/2][Q:1/2=136]"^Moderato  [c. 68"!f! A4 B4 | E4 (F2 G2) | (A2 B2) (c2 d2) | c3 c B4 | e4 c4 | %6
w: et in|ter- ra _|pax _ ho- *|mi- ni- bus|et in|
 A2 G2 A4 | B2 A4 G2 | G4 A4- | A2 E2 F2 d2 | B8 | A4 z4 | z2 =d2 B2 _d2 | c4 z2 e2- | %14
w: ter- ra pax|ho- mi- ni-|bus bo-|* nae vo- lun-|ta-|tis.|Lau- da- mus|te. Be-|
 e2 =d2 BB _d2 | c4 z2 c2- | c2 =B2 G2 _B2 | A2 c2 B2 A2 | G6 F2 | =E4!p! d4- | d3 d c4 | d3 A A4 | %22
w: * ne- di- ci- mus|te. A-|* do- ra- mus|te. Glo- ri- fi-|ca- mus|te. Gra-|* ti- as|a- gi- mus|
 _c8 | B4 B2 B2 | A6 A2 |!<(! _G6 G2 | F6!<)! z2 |!f! d4 c2 B2 | (A8 | G8) | F4 z2 _c2- | %31
w: ti-|bi prop- ter|ma- gnam|glo- ri-|am|glo- ri- am|tu-||am. Do-|
 c2 BB (_G2 __B2) | A6 z2 | !>!B4 !>!A4 | !>!_G4 !>!A4 | d6 c2 | B4 =A2 B2 | !>!c4 !>!c4 | %38
w: * mi- ne De- *|us,|Rex cae-|les- tis,|De- us|Pa- ter om-|ni- po-|
 !>!c6 z2 | z2!p! F2 =E2 C2 | _E4 =D4 | z2!mp! (G2 F2) =D2 | F3 F E4 |!mf! A4 F4 | G4 G4 | %45
w: tens.|Do- mi- ne|Fi- li|u- * ni-|ge- ni- te,|Je- su|Chri- ste.|
 z4 z2!f! c2- | c2 =BB (G2 _B2) | A4 z2 c2- | c2 =B2 (G2 _B2) | A4 z2 d2- | d2 cc (A2 _c2) | %51
w: Do-|* mi- ne De- *|us, A-|* gnus De- *|i, Fi-|* li- us Pa- *|
 B4 z2!p! B2 |!<(! B4 A2 B2 | B6!<)! B2 |!>(! A4 G4!>)! |!<(! A6 B2!<)! | _c4 _F4 | %57
w: tris. Qui|tol- lis pec-|ca- ta|mun- di,|mi- se-|re- re|
!>(! (_F6 _G2)!>)! | A4 z2 A2 |!<(! A4 _G2 A2 | A6!<)! A2 | _G4 F4 |!f! F6 B2 | E4 _G2 A2 | B4 A4 | %65
w: no- *|bis. Qui|tol- lis pec-|ca- ta|mun- di,|sus- ci-|pe de- pre-|ca- ti-|
 d4 d4 | c8 | B4 z2!p! B2 |!<(! B4 B2 B2 | B3 B B4 | (B2 d4-!<)! d!>(!_c) | B6!>)! z2 | %72
w: o- em|no-|stram. Qui|se- des ad|dex- te- ram|Pa- * * *|tris,|
 z2!p! B4 B2 |"^[rall.]" _c4 A4 | (_G4 _F4) | !fermata!E6 z2 |!f! A4 B4 | (E4 F2) G2 | %78
w: mi- se-|re- re|no- *|bis.|Quo- ni-|am _ tu|
 (A2 B2) (c2 d2) | c4 B2 B2 | e4 c4 | A3 G A2 A2 | d4 B2 A2 | G3 F G4 | (F2 B4) A2 | A4 G2!f! G2 | %86
w: so- * lus _|san- ctus, tu|so- lus|Do- mi- nus. Tu|so- lus al-|tis- si- mus,|Je- * su|Chri- ste. Cum|
 c4 c4 | e3 e d4 | z2!<(! d2 d2 dd | (d2 =d2) (e2 =e2)!<)! | f4 B4 | z2 B2 B2 BB | B4 e4 | A4 d4 | %94
w: San- cto|Spi- ri- tu,|in glo- ri- a|De- * i _|Pa- tris,|in glo- ri- a|De- i|Pa- tris,|
 (G4 c4- | c2 B2 A2 G2) |"^[rall.]" A8- | A2 z2 z4 | z8 |] %99
w: A- *||men.|_||
V:2
 z14 ||[M:2/2]!f! A4 B4 | E4 F2 G2 | A2 B2 c2 d2 | [Ac]4 [GB]4 | e4 c4 | [FA]8 | B2 A4 G2 | %8
 [=EG]4 [_GA]4- | [GA]4- A2 [FBd]2 | B8 | A2 E2 e4- | e2 =d2 B2 _d2 | c2 E2 e4- | e2 =d2 B2 _d2 | %15
 c2 C2 c4- | c2 =B2 G2 _B2 | A2 c2 B2 A2 | G6 F2 | [D=E]4!p! [Ed-]4 | [Fd]4 [Ec]4 | d4 A4 | _c8 | %23
 [B,B]4 [E-B]4 | A8 | G8 | F8 | B,2 d2 c2 B2 | [FA]8 | [=EG]8 | F2 D2 d4- | d4 __B2 =c2 | [Ad]8 | %33
 d8- | d8 | [df]6 [ce]2 | [Bd]4 [=Ac]2 [Bd]2 | f6 f2 | [Gc=e]8 |!p! z2 F2 =E2 C2 | %40
 [=A,C_E]4 [B,=D]4 | =D2 G2 F2 D2 | F3 F E4 | [EA]4 [=DF]4 | [=DG]4 [DG]4 |!f! z2 C2 c4- | %46
 c2 =B2 G2 _B2 | A2 C2 c4- | c2 =B2 G2 _B2 | A2 D2 d4- | d2 c2 A2 _c2 |!p! [AB]8- | [AB]8- | %53
 [AB]8- | [EB]8 | A6 B2 | _c4 _F4 | _F6 _G2 | [_GA]8- | [GA]8- | [GA]8- | [DA]8 | z2 =D2 =d4- | %63
 d2 B2 e4 | [=EG]4 [Fc]4 | [Fd]4 [Fd]4 | c8 | [AB]8- | [AB]8- | [AB]8- | [AB]8- | [AB]8 | %72
!p! [D_GB]8 | [DF_c]4 [DA]4 | _G4 _F4 | !fermata![B,E]6 z2 |!f! A4 B4 | E4 F2 G2 | A2 B2 c2 d2 | %79
 [Ac]4 [GB]4 | e4 c4 | [FA]8 | [Bd]4 B2 A2 | G3 F [CG]4 | F2 [FB]4 [FA]2 | [FA]4 [=EG]2 G2 | %86
 c4 [=EGc]4 | [ce]4 [Bd]4- | [Bd-]8 | d2 =d2 e2 =e2 | f4 B4- | [AB-]8 | [GB]4 [Ae]4 | [FA]4 [Gd]4 | %94
 [EG]4 [E_Gc-]4 | c2 B2 A2 G2 | [CA-]8 | A8- | !fermata!A8 |] %99
V:3
 z14 ||[M:2/2] A,4 B,4 | E,8- | E,8 | E,,4 E,2 D,2 | C,4 A,,4 | D,6 C,2 | B,,4 =B,,4 | C,6 B,,2 | %9
 A,,4 D,2 B,,2 | E,4 E,,4 | A,,4 z2 C2 | B,4 E,4 | A,4 z2 C2 | B,4 =E,4 | F,4 z2 A,2 | G,4 C,4 | %17
 F,4 G,2 A,2 | B,6 A,2 | G,8 | A,8- | A,8 | A,8 | G,8 | _G,4 F,4- | F,4 E,4- | E,4 F,2 E,2 | %27
!mf! [B,,D,]4 [C,E,]2 [D,F,-]2 | F,2 =E,2 F,2 A,2 | C6 B,2 | A,4 z2 F,2 | _G,8 | F,2 E,2 D,2 C,2 | %33
 D,8- | D,6 C,2 | B,,2 C,2 D,2 E,2 | F,6 D,2 | C,8 | C,4 B,,4 | [=A,,F,]4 C,4 | ^F,4 G,4 | G,8 | %42
 G,8 | [A,,A,]8 | G,6 F,2 | E,6 A,2 | G,4 C,4 | F,4 z2 A,2 | G,4 C,4 | D,4 z2 G,2 | A,4 D,4 | %51
 z2 =A,2 B,4- | B,2 =A,2 B,4- | B,2 =A,2 B,4- | B,8 | [_C,A,]6 [B,,G,]2 | [A,,A,]4 [D,A,]4 | %57
 [B,,G,]8 | z2 G,2 A,4- | A,2 G,2 A,4- | A,2 G,2 A,4- | A,8 | [B,,B,]8 | B,8 | B,4 A,4 | %65
 [D,A,]4 [B,,B,]4 | A,2 =E,2 F,2 A,2 | z2 =A,2 B,4- | B,2 =A,2 B,4- | B,2 =A,2 B,4- | %70
 B,2 =A,2 B,4- | B,2 =A,2 B,4- | [_D,B,]8 | [D,A,]4 [_C,F,]4 | [B,,_G,]4 [D,A,]4 | %75
 !fermata![E,G,]6 z2 | A,4 B,4 | E,8- | E,8 | E,,4 E,2 D,2 | C,4 A,,4 | D,6 C,2 | B,8- | B,4 z4 | %84
 B,,4 =B,,4 | C,6 G,2 | C4 B,4 | =A,4 B,2 _A,2 | _G,4 _F,4 | E,2 =D,2 _D,2 C,2 | D,6 =D,2 | %91
 E,4 F,4 | E2 D4 C2 | D2 C4 B,2 | C2 B,4 __B,2 | A,4 B,4 | A,6 =D,2 | E,2 =E,2 F,2 G,2 | %98
 !fermata!A,8 |] %99
V:4
 x14 ||[M:2/2] x8 | E8- | E4 E2 F2 | E8 | E8- | E4 D4 | D4 =D4 | x4 _E2 D2 | C4 [DF]2 x2 | E6 D2 | %11
 C4 z2 E2 | F4 G4 | A4 z2 E2 | F4 G4 | A4 z2 C2 | =D4 =E4 | F8- | F2 E2 =D4 | x8 | x8 | D6 =D2 | %22
 E4 F4 | x8 | E4 D4- | D4 C4- | C8 | F8 | x8 | x8 | x8 | _c2 B2 E4 | D4 F4 | [_GB]4 [FA]4 | %34
 [E_G]4 [FA]4 | F8- | F8 | c4 =d4 | x8 | C4 =A,4 | x8 | =B,8 | C8 | C8 | C4 =B,4 | z6 C2 | %46
 =D4 =E4 | F4 z2 C2 | =D4 =E4 | F4 z2 _F2 | E4 F4 | F6 _F2 | E6 =D2 | D6 =D2 | A4 G4 | E8 | E4 D4 | %57
 D8 | E6 __E2 | D6 C2 | _C6 =C2 | G4 F4 | [FA]8 | [E_G]8 | x8 | x8 | F2 G2 A2 F2 | F6 _F2 | %68
 E6 =D2 | D6 =D2 | E6 _F2 | F6 F2 | x8 | x8 | D6 _C2 | x8 | x8 | E8- | E4 E2 F2 | E8 | E8- | %81
 E4 D4 | F8 | E8 | D4 =D4 | C6 x2 | x8 | F8 | _G8 | [GB]8 | [FA]8 | E4 =D4 | x8 | x8 | x8 | %95
 [=DF]4 [_DE]4 | (E2- F2 _G4- | [CG]4) [DF]4 | [CE]8 |] %99
V:5
 x14 ||[M:2/2] x8 | E,4 D,4 | C,4 A,,4 | x8 | x8 | x8 | x8 | x8 | x8 | x8 | x8 | x8 | x8 | x8 | %15
 x8 | x8 | x8 | B,4 B,,4 | B,,6 __B,,2 | A,,4 A,2 _G,2 | F,4 _F,4 | E,4 =D,4 | E,4 D,4 | C,4 D,4 | %25
 B,,4 C,4 | =A,,8 | x8 | C,8- | C,4 C,,4 | D,,4 z4 | x8 | x8 | x8 | x8 | x8 | x8 | x8 | x8 | x8 | %40
 x8 | F,4 =D,4 | C,6 B,,2 | x8 | G,,8 | x8 | x8 | x8 | x8 | x8 | x8 | =D,8 | E,8 | _F,8 | E,4 D,4 | %55
 x8 | x8 | x8 | C,8 | D,8 | __E,8 | D,4 _C,4 | x8 | E,4 D,4 | C,4 F,4 | x8 | C,8 | =D,8 | E,8 | %69
 _F,8 | E,8 | =D,8 | x8 | x8 | x8 | x8 | x8 | E,4 D,4 | C,4 A,,4 | x8 | x8 | x8 | B,,4 D,4 | %83
 E,2 D,2 C,2 G,,2 | x8 | x8 | x8 | x8 | x8 | x8 | x8 | x8 | E,8- | E,8- | E,8- | E,4 E,,4 | A,,8- | %97
 A,,4 D,4 | A,,8 |] %99
V:6
 x14 ||[M:2/2] x8 | x8 | x4 A4 | x8 | A6 G2 | x8 | F8 | x8 | x8 | A4 G4 | x8 | x8 | x8 | x8 | x8 | %16
 x8 | x8 | x8 | x8 | x8 | x8 | x8 | x8 | x8 | x8 | x8 | x8 | x8 | x8 | x8 | x8 | x8 | x8 | x8 | %35
 x8 | x8 | A8 | x8 | x8 | x8 | x8 | x8 | x8 | x8 | x8 | x8 | x8 | x8 | x8 | x8 | x8 | x8 | x8 | %54
 x8 | x8 | x8 | x8 | x8 | x8 | x8 | x8 | x8 | x8 | x8 | x8 | x8 | x8 | x8 | x8 | x8 | x8 | x8 | %73
 x8 | x8 | x8 | x8 | x8 | x4 A4 | x8 | A6 G2 | x8 | x8 | x8 | x8 | x8 | x8 | x8 | x8 | x8 | x8 | %91
 x8 | x8 | x8 | x8 | x8 | x8 | x8 | x8 |] %99

